Origami/48x48/apps/electrum.svg

<svg width="48" height="48" version="1.1" viewBox="0 0 48 48" xmlns="http://www.w3.org/2000/svg">
 <circle cx="24" cy="24" r="20" style="fill:#cccccc"/>
 <path d="m24 4a20 20 0 0 0 -20 20 20 20 0 0 0 0.0215 0.582 20 20 0 0 1 19.978 -19.582 20 20 0 0 1 19.979 19.418 20 20 0 0 0 0.02148 -0.4179 20 20 0 0 0 -20 -20z" style="fill:#ffffff;opacity:.2"/>
 <path d="M 43.979,24.4 A 20,20 0 0 1 24,44 20,20 0 0 1 4.022,24.5 20,20 0 0 0 4,25 20,20 0 0 0 24,45 20,20 0 0 0 44,25 20,20 0 0 0 43.9785,24.4179 Z" style="opacity:.2"/>
 <path d="m21 16v1.999999h-3v2.000002s1.14565-0.01999 1.127368 0c0.613377-0.0093 0.808708 0.436058 0.872215 0.733073v6.600259c-0.02351 0.1877-0.0035 0.653333-0.432202 0.666667 0.0198 0.01733-1.567381 0-1.567381 0v2h2.168817c0.366727-0.01333 0.476912 0 0.831183 0v2h2v-2h0.97917l0.04166 2h1.97917l-0.02083-2c2.543221-0.184635 4.020831-1.402119 4.00401-3.5 0.01682-1.929913-1.526528-2.993589-2.48318-3 0.956507 0.0038 1.500001-1.036553 1.500001-2.5 0-2-1.380197-3-3.000002-3v-2h-1.999999v2c-0.398082 0-0.595857-0.01467-1 0v-2zm2 4.000001c2-1e-6 3-1e-6 3 1.499999s-1 1.5-3 1.5zm0 4.999999c2.666111 8.3e-5 4.000276-0.166641 4 1.5 2.76e-4 1.666775-1.333889 1.5-4 1.5z" style="fill:#1488c4"/>
 <ellipse cx="24" cy="24" rx="18" ry="10" style="fill:none;stroke-width:1.8257419;stroke:#1488c4"/>
 <ellipse transform="rotate(60)" cx="32.785" cy="-8.785" rx="18" ry="10" style="fill:none;stroke-width:1.8257419;stroke:#1488c4"/>
 <ellipse transform="matrix(-.5 .8660254 .8660254 .5 0 0)" cx="8.785" cy="32.785" rx="18" ry="10" style="fill:none;stroke-width:1.8257419;stroke:#1488c4"/>
</svg>

<svg xmlns="http://www.w3.org/2000/svg" width="48" height="48" version="1.1" viewBox="0 0 48 48">
 <circle style="fill:#cccccc" cx="24" cy="24" r="20"/>
 <path style="opacity:0.2;fill:#ffffff" d="M 24,4 A 20,20 0 0 0 4,24 20,20 0 0 0 4.0215,24.582 20,20 0 0 1 23.9995,5 a 20,20 0 0 1 19.979,19.418 20,20 0 0 0 0.02148,-0.4179 20,20 0 0 0 -20,-20 z"/>
 <path style="opacity:0.2" d="M 43.979,24.4 A 20,20 0 0 1 24,44 20,20 0 0 1 4.022,24.5 20,20 0 0 0 4,25 20,20 0 0 0 24,45 20,20 0 0 0 44,25 20,20 0 0 0 43.9785,24.4179 Z"/>
 <path style="fill:#1488c4" d="m 21,16 v 1.999999 h -3 v 2.000002 c 0,0 1.14565,-0.01999 1.127368,0 0.613377,-0.0093 0.808708,0.436058 0.872215,0.733073 v 6.600259 C 19.976073,27.521033 19.996083,27.986666 19.567381,28 19.587181,28.01733 18,28 18,28 v 2 h 2.168817 C 20.535544,29.98667 20.645729,30 21,30 v 2 h 2 v -2 h 0.97917 l 0.04166,2 H 26 l -0.02083,-2 c 2.543221,-0.184635 4.020831,-1.402119 4.00401,-3.5 C 30,24.570087 28.456652,23.506411 27.5,23.5 c 0.956507,0.0038 1.500001,-1.036553 1.500001,-2.5 0,-2 -1.380197,-3 -3.000002,-3 V 16 H 24 v 2 c -0.398082,0 -0.595857,-0.01467 -1,0 v -2 z m 2,4.000001 C 25,20 26,20 26,21.5 26,23 25,23 23,23 Z M 23,25 c 2.666111,8.3e-5 4.000276,-0.166641 4,1.5 2.76e-4,1.666775 -1.333889,1.5 -4,1.5 z"/>
 <ellipse style="fill:none;stroke:#1488c4;stroke-width:1.82574189" cx="24" cy="24" rx="18" ry="10"/>
 <ellipse style="fill:none;stroke:#1488c4;stroke-width:1.82574189" cx="32.785" cy="-8.785" rx="18" ry="10" transform="rotate(60)"/>
 <ellipse style="fill:none;stroke:#1488c4;stroke-width:1.82574189" cx="8.785" cy="32.785" rx="18" ry="10" transform="matrix(-0.5,0.8660254,0.8660254,0.5,0,0)"/>
</svg>
